assets/themes/surveillance/cam_left.svg

<?xml version="1.0" encoding="UTF-8" standalone="no"?>
<svg
        xmlns:dc="http://purl.org/dc/elements/1.1/"
        xmlns:cc="http://creativecommons.org/ns#"
        xmlns:rdf="http://www.w3.org/1999/02/22-rdf-syntax-ns#"
        xmlns:sodipodi="http://sodipodi.sourceforge.net/DTD/sodipodi-0.dtd"
        xmlns:inkscape="http://www.inkscape.org/namespaces/inkscape"
        xmlns="http://www.w3.org/2000/svg"
        id="svg6"
        version="1.1"
        height="210"
        width="600"
        sodipodi:docname="cam.svg"
        inkscape:version="0.92.4 (5da689c313, 2019-01-14)">
    <sodipodi:namedview
            pagecolor="#ffffff"
            bordercolor="#666666"
            borderopacity="1"
            objecttolerance="10"
            gridtolerance="10"
            guidetolerance="10"
            inkscape:pageopacity="0"
            inkscape:pageshadow="2"
            inkscape:window-width="1920"
            inkscape:window-height="1001"
            id="namedview6"
            showgrid="false"
            showguides="true"
            inkscape:guide-bbox="true"
            inkscape:zoom="0.55625733"
            inkscape:cx="680.78346"
            inkscape:cy="482.50413"
            inkscape:window-x="0"
            inkscape:window-y="0"
            inkscape:window-maximized="1"
            inkscape:current-layer="svg6">
        <sodipodi:guide
                position="192.35701,251.68207"
                orientation="1,0"
                id="guide816"
                inkscape:locked="false"/>
    </sodipodi:namedview>
    <metadata
            id="metadata12">
        <rdf:RDF>
            <cc:Work
                    rdf:about="">
                <dc:format>image/svg+xml</dc:format>
                <dc:type
                        rdf:resource="http://purl.org/dc/dcmitype/StillImage"/>
                <dc:title></dc:title>
            </cc:Work>
        </rdf:RDF>
    </metadata>
    <defs
            id="defs10"/>
    <path
            style="fill:#000000;stroke:#ffffff;stroke-width:17.40477371;stroke-miterlimit:4;stroke-dasharray:none;stroke-opacity:1"
            id="path4"
            d="m 275.84577,72.939087 31.07239,-1.014243 26.20685,70.688356 -54.3295,3.69054 z m 20.0366,-37.552344 269.15255,-4.09941 c 6.98913,0.09009 15.84901,3.554569 15.7875,16.336335 0,0 -2.99159,70.195112 -3.76963,103.307682 -0.27414,11.66795 -4.43254,15.57088 -12.5089,15.57422 l -214.63586,4.14367 z"
            inkscape:connector-curvature="0"/>
</svg>

<?xml version="1.0" encoding="UTF-8" standalone="yes"?>
<svg xmlns="http://www.w3.org/2000/svg" xmlns:xlink="http://www.w3.org/1999/xlink" width="374px" height="131px" viewBox="0 0 374 131" version="1.1">
  <g id="surface1">
    <path style="fill-rule:nonzero;fill:rgb(0%,0%,0%);fill-opacity:1;stroke-width:17.404774;stroke-linecap:butt;stroke-linejoin:miter;stroke:rgb(100%,100%,100%);stroke-opacity:1;stroke-miterlimit:4;" d="M 275.848095 72.938931 L 306.918449 71.924499 L 333.125836 142.615398 L 278.793449 146.303674 Z M 295.882771 35.386152 L 565.038018 31.28459 C 572.025401 31.378519 580.886531 34.841365 580.823864 47.621958 C 580.823864 47.621958 577.828376 117.818166 577.051303 150.931238 C 576.775568 162.597209 572.620739 166.504652 564.542948 166.504652 L 349.908088 170.650048 Z M 295.882771 35.386152 " transform="matrix(0.623333,0,0,0.62381,0,0)"/>
  </g>
</svg>
